src/lib/packages/icons/src/assets/line/angles-left-right.svg

<svg width="24" height="24" viewBox="0 0 24 24" fill="none" xmlns="http://www.w3.org/2000/svg">
<path d="M10.5301 11.47C10.8231 11.763 10.8231 12.238 10.5301 12.531L6.53005 16.531C6.38405 16.677 6.19202 16.751 6.00002 16.751C5.80802 16.751 5.61599 16.678 5.46999 16.531C5.17699 16.238 5.17699 15.763 5.46999 15.47L8.93996 12L5.46999 8.53005C5.17699 8.23705 5.17699 7.76202 5.46999 7.46902C5.76299 7.17602 6.23803 7.17602 6.53103 7.46902L10.5301 11.47ZM15.0611 12L18.531 8.53005C18.824 8.23705 18.824 7.76202 18.531 7.46902C18.238 7.17602 17.763 7.17602 17.47 7.46902L13.47 11.469C13.177 11.762 13.177 12.2371 13.47 12.5301L17.47 16.5301C17.616 16.6761 17.808 16.75 18 16.75C18.192 16.75 18.3841 16.6771 18.5301 16.5301C18.8231 16.2371 18.8231 15.762 18.5301 15.469L15.0611 12Z" fill="currentColor"/>
</svg>

<svg xmlns="http://www.w3.org/2000/svg" width="24" height="24" fill="none"><path fill="currentColor" d="M10.53 11.47a.75.75 0 0 1 0 1.061l-4 4a.748.748 0 0 1-1.06 0 .75.75 0 0 1 0-1.061L8.94 12 5.47 8.53a.75.75 0 1 1 1.061-1.061l4 4.001Zm4.531.53 3.47-3.47a.75.75 0 0 0-1.061-1.061l-4 4a.75.75 0 0 0 0 1.061l4 4a.748.748 0 0 0 1.06 0 .75.75 0 0 0 0-1.061L15.061 12Z"/></svg>
